assets/img/braze_icons/expand-05.svg

<svg fill="none" height="24" viewBox="0 0 24 24" width="24" xmlns="http://www.w3.org/2000/svg"><g fill="#801ed7"><path d="m9 4h-3.58579l4.2929 4.29289c.39049.39053.39049 1.02369 0 1.41422-.39053.39049-1.02369.39049-1.41422 0l-4.29289-4.2929v3.58579c0 .55229-.44771 1-1 1-.55228 0-1-.44771-1-1v-6c0-.55228.44772-1 1-1h6c.55228 0 1 .44772 1 1s-.44772 1-1 1z"/><path d="m14 3c0-.55228.4477-1 1-1h6c.5523 0 1 .44772 1 1v6c0 .55229-.4477 1-1 1s-1-.44771-1-1v-3.58579l-4.2929 4.2929c-.3905.39049-1.0237.39049-1.4142 0-.3905-.39053-.3905-1.02369 0-1.41422l4.2929-4.29289h-3.5858c-.5523 0-1-.44772-1-1z"/><path d="m9.70711 15.7071-4.2929 4.2929h3.58579c.55228 0 1 .4477 1 1s-.44772 1-1 1h-6c-.55228 0-1-.4477-1-1v-6c0-.5523.44772-1 1-1 .55229 0 1 .4477 1 1v3.5858l4.29289-4.2929c.39053-.3905 1.02369-.3905 1.41422 0 .39049.3905.39049 1.0237 0 1.4142z"/><path d="m20 18.5858v-3.5858c0-.5523.4477-1 1-1s1 .4477 1 1v6c0 .5523-.4477 1-1 1h-6c-.5523 0-1-.4477-1-1s.4477-1 1-1h3.5858l-4.2929-4.2929c-.3905-.3905-.3905-1.0237 0-1.4142s1.0237-.3905 1.4142 0z"/></g></svg>

<svg width="24" height="24" viewBox="0 0 24 24" fill="none" xmlns="http://www.w3.org/2000/svg">
<path d="M9 4L5.41421 4L9.70711 8.29289C10.0976 8.68342 10.0976 9.31658 9.70711 9.70711C9.31658 10.0976 8.68342 10.0976 8.29289 9.70711L4 5.41421L4 9C4 9.55229 3.55229 10 3 10C2.44772 10 2 9.55229 2 9V3C2 2.44772 2.44772 2 3 2H9C9.55228 2 10 2.44772 10 3C10 3.55228 9.55228 4 9 4Z" fill="#801ED7"/>
<path d="M14 3C14 2.44772 14.4477 2 15 2H21C21.5523 2 22 2.44772 22 3V9C22 9.55229 21.5523 10 21 10C20.4477 10 20 9.55229 20 9V5.41421L15.7071 9.70711C15.3166 10.0976 14.6834 10.0976 14.2929 9.70711C13.9024 9.31658 13.9024 8.68342 14.2929 8.29289L18.5858 4H15C14.4477 4 14 3.55228 14 3Z" fill="#801ED7"/>
<path d="M9.70711 15.7071L5.41421 20H9C9.55228 20 10 20.4477 10 21C10 21.5523 9.55228 22 9 22H3C2.44772 22 2 21.5523 2 21V15C2 14.4477 2.44772 14 3 14C3.55229 14 4 14.4477 4 15L4 18.5858L8.29289 14.2929C8.68342 13.9024 9.31658 13.9024 9.70711 14.2929C10.0976 14.6834 10.0976 15.3166 9.70711 15.7071Z" fill="#801ED7"/>
<path d="M20 18.5858V15C20 14.4477 20.4477 14 21 14C21.5523 14 22 14.4477 22 15V21C22 21.5523 21.5523 22 21 22H15C14.4477 22 14 21.5523 14 21C14 20.4477 14.4477 20 15 20H18.5858L14.2929 15.7071C13.9024 15.3166 13.9024 14.6834 14.2929 14.2929C14.6834 13.9024 15.3166 13.9024 15.7071 14.2929L20 18.5858Z" fill="#801ED7"/>
</svg>
